web/public/images/react.svg

<svg fill="none" height="42" viewBox="0 0 42 42" width="42" xmlns="http://www.w3.org/2000/svg"><path d="m21 17.6925c1.8025 0 3.2725 1.47 3.2725 3.3075 0 1.75-1.47 3.2375-3.2725 3.2375s-3.2725-1.4875-3.2725-3.2375c0-1.8375 1.47-3.3075 3.2725-3.3075zm-8.1025 17.3075c1.1025.665 3.5175-.35 6.3-2.975-.91-1.0325-1.8025-2.1525-2.6425-3.325-1.4102-.135-2.8122-.3453-4.2-.63-.8925 3.745-.56 6.3175.5425 6.93zm1.2425-10.045-.5075-.8925c-.1925.5075-.385 1.015-.5075 1.505.4725.105.9975.1925 1.54.28zm11.445-1.33 1.4175-2.625-1.4175-2.625c-.525-.9275-1.085-1.75-1.5925-2.5725-.945-.0525-1.9425-.0525-2.9925-.0525s-2.0475 0-2.9925.0525c-.5075.8225-1.0675 1.645-1.5925 2.5725l-1.4175 2.625 1.4175 2.625c.525.9275 1.085 1.75 1.5925 2.5725.945.0525 1.9425.0525 2.9925.0525s2.0475 0 2.9925-.0525c.5075-.8225 1.0675-1.645 1.5925-2.5725zm-4.585-11.76c-.3325.385-.6825.7875-1.0325 1.26h2.065c-.35-.4725-.7-.875-1.0325-1.26zm0 18.27c.3325-.385.6825-.7875 1.0325-1.26h-2.065c.35.4725.7.875 1.0325 1.26zm8.085-23.13503c-1.085-.665-3.5.35-6.2825 2.975.91 1.03253 1.8025 2.15253 2.6425 3.32503 1.435.14 2.8525.35 4.2.63.8925-3.745.56-6.31753-.56-6.93003zm-1.225 10.04503.5075.8925c.1925-.5075.385-1.015.5075-1.505-.4725-.105-.9975-.1925-1.54-.28zm2.5375-12.33753c2.5725 1.47 2.8525 5.33753 1.7675 9.85253 4.445 1.3125 7.6475 3.4825 7.6475 6.44s-3.2025 5.1275-7.6475 6.44c1.085 4.515.805 8.3825-1.7675 9.8525-2.555 1.47-6.0375-.21-9.3975-3.4125-3.36 3.2025-6.8425 4.8825-9.415 3.4125-2.555-1.47-2.835-5.3375-1.75-9.8525-4.445-1.3125-7.6475-3.4825-7.6475-6.44s3.2025-5.1275 7.6475-6.44c-1.085-4.515-.805-8.38253 1.75-9.85253 2.5725-1.47 6.055.21 9.415 3.4125 3.36-3.2025 6.8425-4.8825 9.3975-3.4125zm-.5075 16.29253c.595 1.3125 1.12 2.625 1.5575 3.955 3.675-1.1025 5.74-2.6775 5.74-3.955s-2.065-2.8525-5.74-3.955c-.4375 1.33-.9625 2.6425-1.5575 3.955zm-17.78 0c-.595-1.3125-1.12-2.625-1.5575-3.955-3.675 1.1025-5.74 2.6775-5.74 3.955s2.065 2.8525 5.74 3.955c.4375-1.33.9625-2.6425 1.5575-3.955zm15.75 3.955-.525.8925c.5425-.0875 1.0675-.175 1.54-.28-.1225-.49-.315-.9975-.5075-1.505zm-5.0575 7.07c2.7825 2.625 5.1975 3.64 6.2825 2.975 1.12-.6125 1.4525-3.185.56-6.93-1.3475.28-2.765.49-4.2.63-.84 1.1725-1.7325 2.2925-2.6425 3.325zm-8.6625-14.98.525-.8925c-.5425.0875-1.0675.175-1.54.28.1225.49.315.9975.5075 1.505zm5.0575-7.07003c-2.7825-2.625-5.1975-3.64-6.3-2.975-1.1025.6125-1.435 3.18503-.5425 6.93003 1.3878-.2848 2.7898-.4951 4.2-.63.84-1.1725 1.7325-2.2925 2.6425-3.32503z" fill="#a86338"/></svg>

<svg width="42" height="42" viewBox="0 0 42 42" fill="none" xmlns="http://www.w3.org/2000/svg">
<path d="M21 17.6925C22.8025 17.6925 24.2725 19.1625 24.2725 21C24.2725 22.75 22.8025 24.2375 21 24.2375C19.1975 24.2375 17.7275 22.75 17.7275 21C17.7275 19.1625 19.1975 17.6925 21 17.6925ZM12.8975 35C14 35.665 16.415 34.65 19.1975 32.025C18.2875 30.9925 17.395 29.8725 16.555 28.7C15.1448 28.565 13.7428 28.3547 12.355 28.07C11.4625 31.815 11.795 34.3875 12.8975 35ZM14.14 24.955L13.6325 24.0625C13.44 24.57 13.2475 25.0775 13.125 25.5675C13.5975 25.6725 14.1225 25.76 14.665 25.8475L14.14 24.955ZM25.585 23.625L27.0025 21L25.585 18.375C25.06 17.4475 24.5 16.625 23.9925 15.8025C23.0475 15.75 22.05 15.75 21 15.75C19.95 15.75 18.9525 15.75 18.0075 15.8025C17.5 16.625 16.94 17.4475 16.415 18.375L14.9975 21L16.415 23.625C16.94 24.5525 17.5 25.375 18.0075 26.1975C18.9525 26.25 19.95 26.25 21 26.25C22.05 26.25 23.0475 26.25 23.9925 26.1975C24.5 25.375 25.06 24.5525 25.585 23.625ZM21 11.865C20.6675 12.25 20.3175 12.6525 19.9675 13.125H22.0325C21.6825 12.6525 21.3325 12.25 21 11.865ZM21 30.135C21.3325 29.75 21.6825 29.3475 22.0325 28.875H19.9675C20.3175 29.3475 20.6675 29.75 21 30.135ZM29.085 6.99997C28 6.33497 25.585 7.34997 22.8025 9.97497C23.7125 11.0075 24.605 12.1275 25.445 13.3C26.88 13.44 28.2975 13.65 29.645 13.93C30.5375 10.185 30.205 7.61247 29.085 6.99997ZM27.86 17.045L28.3675 17.9375C28.56 17.43 28.7525 16.9225 28.875 16.4325C28.4025 16.3275 27.8775 16.24 27.335 16.1525L27.86 17.045ZM30.3975 4.70747C32.97 6.17747 33.25 10.045 32.165 14.56C36.61 15.8725 39.8125 18.0425 39.8125 21C39.8125 23.9575 36.61 26.1275 32.165 27.44C33.25 31.955 32.97 35.8225 30.3975 37.2925C27.8425 38.7625 24.36 37.0825 21 33.88C17.64 37.0825 14.1575 38.7625 11.585 37.2925C9.03 35.8225 8.75 31.955 9.835 27.44C5.39 26.1275 2.1875 23.9575 2.1875 21C2.1875 18.0425 5.39 15.8725 9.835 14.56C8.75 10.045 9.03 6.17747 11.585 4.70747C14.1575 3.23747 17.64 4.91747 21 8.11997C24.36 4.91747 27.8425 3.23747 30.3975 4.70747ZM29.89 21C30.485 22.3125 31.01 23.625 31.4475 24.955C35.1225 23.8525 37.1875 22.2775 37.1875 21C37.1875 19.7225 35.1225 18.1475 31.4475 17.045C31.01 18.375 30.485 19.6875 29.89 21ZM12.11 21C11.515 19.6875 10.99 18.375 10.5525 17.045C6.8775 18.1475 4.8125 19.7225 4.8125 21C4.8125 22.2775 6.8775 23.8525 10.5525 24.955C10.99 23.625 11.515 22.3125 12.11 21ZM27.86 24.955L27.335 25.8475C27.8775 25.76 28.4025 25.6725 28.875 25.5675C28.7525 25.0775 28.56 24.57 28.3675 24.0625L27.86 24.955ZM22.8025 32.025C25.585 34.65 28 35.665 29.085 35C30.205 34.3875 30.5375 31.815 29.645 28.07C28.2975 28.35 26.88 28.56 25.445 28.7C24.605 29.8725 23.7125 30.9925 22.8025 32.025ZM14.14 17.045L14.665 16.1525C14.1225 16.24 13.5975 16.3275 13.125 16.4325C13.2475 16.9225 13.44 17.43 13.6325 17.9375L14.14 17.045ZM19.1975 9.97497C16.415 7.34997 14 6.33497 12.8975 6.99997C11.795 7.61247 11.4625 10.185 12.355 13.93C13.7428 13.6452 15.1448 13.4349 16.555 13.3C17.395 12.1275 18.2875 11.0075 19.1975 9.97497Z" fill="#A86338"/>
</svg>
